src/images/clients/samsung.svg

<svg width="192" height="30" viewBox="0 0 192 30" fill="none" xmlns="http://www.w3.org/2000/svg">
<path d="M182.291 13.2524V17.2555H185.104V21.2273C185.113 21.5822 185.093 21.965 185.032 22.2712C184.921 23.0121 184.217 24.2735 182.22 24.2735C180.235 24.2735 179.544 23.0121 179.424 22.2712C179.374 21.965 179.352 21.5822 179.352 21.2273V8.68257C179.352 8.23883 179.382 7.75316 179.476 7.38555C179.612 6.71696 180.205 5.39845 182.205 5.39845C184.305 5.39845 184.829 6.78851 184.949 7.38555C185.028 7.781 185.032 8.44431 185.032 8.44431V9.96759H191.945V9.06709C191.945 9.06709 191.976 8.12746 191.893 7.25057C191.373 2.10164 187.131 0.472622 182.266 0.472622C177.393 0.472622 173.236 2.1168 172.631 7.25057C172.576 7.72003 172.493 8.5645 172.493 9.06709V20.607C172.493 21.1096 172.509 21.4987 172.602 22.4171C173.053 27.4244 177.393 29.1993 182.247 29.1993C187.131 29.1993 191.44 27.4244 191.899 22.4171C191.981 21.4987 191.989 21.1096 192 20.607V13.2524H182.291ZM134.627 1.211H127.686V21.5166C127.696 21.8705 127.686 22.2681 127.625 22.5595C127.48 23.2412 126.902 24.553 124.987 24.553C123.096 24.553 122.503 23.2412 122.37 22.5595C122.3 22.2681 122.291 21.8705 122.3 21.5166V1.211H115.36V20.8865C115.352 21.3936 115.391 22.4298 115.421 22.7012C115.9 27.8283 119.941 29.4929 124.987 29.4929C130.042 29.4929 134.081 27.8283 134.568 22.7012C134.607 22.4298 134.657 21.3936 134.627 20.8865V1.211ZM70.8447 1.211L67.3819 22.6667L63.9212 1.211H52.7235L52.1296 28.659H58.9897L59.1754 3.24957L63.8954 28.659H70.8556L75.5798 3.24957L75.7663 28.659H82.6436L82.0296 1.211H70.8447ZM29.3858 1.211L24.3013 28.659H31.7158L35.5473 3.24957L39.2868 28.659H46.6498L41.5865 1.211H29.3858ZM158.888 23.3099L152.424 1.211H142.238V28.3728H148.976L148.585 5.56692L155.527 28.3728H165.296V1.211H158.513L158.888 23.3099ZM96.5614 8.35444C96.4395 7.81237 96.4747 7.23647 96.5378 6.93548C96.7342 6.05682 97.3245 5.09851 99.0254 5.09851C100.611 5.09851 101.54 6.08678 101.54 7.56989V9.24825H108.307V7.33515C108.307 1.42106 103.005 0.492006 99.166 0.492006C94.3312 0.492006 90.3827 2.08578 89.6616 6.5358C89.4709 7.74681 89.4237 8.82178 89.7271 10.1935C90.9029 15.7421 100.562 17.3518 101.964 20.8607C102.212 21.5254 102.141 22.3731 102.015 22.8725C101.805 23.7857 101.191 24.7042 99.3694 24.7042C97.6614 24.7042 96.6333 23.7223 96.6333 22.2423L96.6312 19.6081H89.3475V21.702C89.3475 27.7694 94.0999 29.6001 99.2186 29.6001C104.121 29.6001 108.17 27.9249 108.819 23.3839C109.129 21.0377 108.895 19.5094 108.771 18.9339C107.636 13.2429 97.3407 11.5311 96.5614 8.35444ZM7.29568 8.28712C7.16281 7.73377 7.19382 7.14977 7.26784 6.84525C7.45534 5.97082 8.04921 4.9956 9.78009 4.9956C11.3855 4.9956 12.3308 5.99338 12.3308 7.48847V9.18727H19.1771V7.25903C19.1771 1.28819 13.7938 0.336576 9.91297 0.336576C5.03754 0.336576 1.05382 1.95502 0.324957 6.43711C0.125471 7.66751 0.091272 8.74988 0.379575 10.1368C1.56803 15.7485 11.3231 17.3711 12.7424 20.9221C13.0082 21.5822 12.9278 22.4298 12.796 22.9486C12.5708 23.8713 11.9515 24.8029 10.1153 24.8029C8.40061 24.8029 7.37499 23.804 7.37499 22.3037L7.36547 19.6624H0V21.7612C0 27.8981 4.81973 29.7435 9.97817 29.7435C14.9375 29.7435 19.01 28.0535 19.6744 23.46C20.0046 21.0923 19.7569 19.5514 19.6455 18.967C18.487 13.2062 8.07706 11.5 7.29568 8.28712Z" fill="black"/>
</svg>

<svg xmlns="http://www.w3.org/2000/svg" width="192" height="30" fill="none" viewBox="0 0 192 30"><path fill="#000" d="M182.291 13.252v4.004h2.813v3.971c.009.355-.011.738-.072 1.044-.111.741-.815 2.002-2.812 2.002-1.985 0-2.676-1.26-2.796-2.002a6.859 6.859 0 0 1-.072-1.044V8.683c0-.444.03-.93.124-1.297.136-.669.729-1.988 2.729-1.988 2.1 0 2.624 1.39 2.744 1.988.079.395.083 1.058.083 1.058v1.524h6.913v-.9s.031-.94-.052-1.817c-.52-5.15-4.762-6.778-9.627-6.778-4.873 0-9.03 1.644-9.635 6.778-.055.469-.138 1.314-.138 1.816v11.54c0 .503.016.892.109 1.81.451 5.007 4.791 6.782 9.645 6.782 4.884 0 9.193-1.775 9.652-6.782.082-.918.09-1.307.101-1.81v-7.355h-9.709ZM134.627 1.211h-6.941v20.306c.01.354 0 .751-.061 1.043-.145.681-.723 1.993-2.638 1.993-1.891 0-2.484-1.312-2.617-1.994-.07-.29-.079-.689-.07-1.042V1.21h-6.94v19.676c-.008.507.031 1.543.061 1.814.479 5.127 4.52 6.792 9.566 6.792 5.055 0 9.094-1.665 9.581-6.792.039-.271.089-1.307.059-1.814V1.21Zm-63.782 0-3.463 21.456-3.46-21.456H52.723l-.594 27.448h6.86l.185-25.41 4.72 25.41h6.96l4.725-25.41.186 25.41h6.878L82.03 1.211H70.845Zm-41.46 0-5.084 27.448h7.415l3.831-25.41 3.74 25.41h7.363L41.587 1.211H29.386ZM158.889 23.31 152.424 1.21h-10.186v27.162h6.738l-.391-22.806 6.942 22.806h9.769V1.21h-6.783l.375 22.099ZM96.561 8.354a3.683 3.683 0 0 1-.023-1.419c.196-.878.787-1.836 2.487-1.836 1.586 0 2.515.988 2.515 2.47v1.68h6.767V7.334c0-5.914-5.302-6.843-9.141-6.843-4.835 0-8.783 1.594-9.504 6.044-.191 1.21-.238 2.286.065 3.658 1.176 5.548 10.835 7.158 12.237 10.667.248.664.177 1.512.051 2.011-.21.914-.824 1.832-2.646 1.832-1.708 0-2.736-.982-2.736-2.462l-.002-2.634h-7.284v2.094c0 6.067 4.753 7.898 9.872 7.898 4.902 0 8.951-1.675 9.6-6.216.31-2.346.076-3.875-.048-4.45-1.135-5.691-11.43-7.403-12.21-10.58ZM7.296 8.287c-.133-.553-.102-1.137-.028-1.442.187-.874.781-1.85 2.512-1.85 1.606 0 2.55.998 2.55 2.493v1.7h6.847V7.258c0-5.97-5.383-6.922-9.264-6.922-4.875 0-8.86 1.618-9.588 6.1-.2 1.23-.234 2.313.055 3.7 1.188 5.611 10.943 7.234 12.362 10.785.266.66.186 1.508.054 2.027-.225.922-.845 1.854-2.68 1.854-1.715 0-2.741-.999-2.741-2.5l-.01-2.64H0v2.098c0 6.137 4.82 7.983 9.978 7.983 4.96 0 9.032-1.69 9.696-6.284.33-2.368.083-3.909-.029-4.493-1.158-5.76-11.568-7.467-12.35-10.68Z"/></svg>
